src/assets/share.svg

<svg width="18" height="18" viewBox="0 0 18 18" fill="none" xmlns="http://www.w3.org/2000/svg">
<g clip-path="url(#clip0_1_46)">
<path d="M13.5 12.06C12.93 12.06 12.42 12.285 12.03 12.6375L6.6825 9.525C6.72 9.3525 6.75 9.18 6.75 9C6.75 8.82 6.72 8.6475 6.6825 8.475L11.97 5.3925C12.375 5.7675 12.9075 6 13.5 6C14.745 6 15.75 4.995 15.75 3.75C15.75 2.505 14.745 1.5 13.5 1.5C12.255 1.5 11.25 2.505 11.25 3.75C11.25 3.93 11.28 4.1025 11.3175 4.275L6.03 7.3575C5.625 6.9825 5.0925 6.75 4.5 6.75C3.255 6.75 2.25 7.755 2.25 9C2.25 10.245 3.255 11.25 4.5 11.25C5.0925 11.25 5.625 11.0175 6.03 10.6425L11.37 13.7625C11.3325 13.92 11.31 14.085 11.31 14.25C11.31 15.4575 12.2925 16.44 13.5 16.44C14.7075 16.44 15.69 15.4575 15.69 14.25C15.69 13.0425 14.7075 12.06 13.5 12.06Z" fill="#212529"/>
</g>
<defs>
<clipPath id="clip0_1_46">
<rect width="18" height="18" fill="white"/>
</clipPath>
</defs>
</svg>

<svg xmlns="http://www.w3.org/2000/svg" width="18" height="18" fill="none"><g clip-path="url(#a)"><path fill="#212529" d="M13.5 12.06c-.57 0-1.08.225-1.47.577L6.683 9.525c.037-.173.067-.345.067-.525 0-.18-.03-.352-.067-.525l5.287-3.082A2.24 2.24 0 0 0 13.5 6a2.247 2.247 0 0 0 2.25-2.25A2.247 2.247 0 0 0 13.5 1.5a2.247 2.247 0 0 0-2.25 2.25c0 .18.03.353.068.525L6.03 7.357A2.24 2.24 0 0 0 4.5 6.75 2.247 2.247 0 0 0 2.25 9a2.247 2.247 0 0 0 2.25 2.25 2.24 2.24 0 0 0 1.53-.607l5.34 3.12c-.037.157-.06.322-.06.487 0 1.207.982 2.19 2.19 2.19 1.207 0 2.19-.983 2.19-2.19 0-1.207-.982-2.19-2.19-2.19Z"/></g><defs><clipPath id="a"><path fill="#fff" d="M0 0h18v18H0z"/></clipPath></defs></svg>
